X:1
T:Over the Beautiful River
T:Ira David Sankey
T:Over the Beautiful River
T:Public Domain
T:Public Domain
C:Ira David Sankey
Z:Public Domain
%%score ( 1 2 ) ( 3 4 )
L:1/8
M:6/8
K:F
V:1 treble 
V:2 treble 
V:3 bass 
V:4 bass 
V:1
 C[CF][CG] [FA][FA][FG] | F[FA][Fd] [Fc]3 | [FA][EG]F [EG][EA][EG] | [CF]3 C3 | %4
w: 1.~O- ver the riv- er my|ones have passed, O-|the beau- ti- ful riv- er;|in the|
w: 2.~O- ver the riv- er with|sus they rest, O-|the beau- ti- ful riv- er;|ing and|
w: 3.~O- ver the riv- er that|les so clear, O-|the beau- ti- ful riv- er;|in the|
w: 4.~O- ver the riv- er, to|er no more, O-|the beau- ti- ful riv- er;|I shall|
 C[CF][CG] [FA][FA][FG] | F[FA][Fd] [Fc]3 | [Ec][F=B][Ec] [Fd][Ge][Fd] | [Ec]6 || %8
w: sions of glo- ry at last,|they are watch- ing|me. * * * * *||
w: ing the songs of the blest,|they are watch- ing|me. Watch- ing to- day, Watch-|ing|
w: lence their voic- es I hear,|they are watch- ing|me. * * * * *||
w: them on yon- der bright shore,|ones now watch- ing|me. * * * * *||
"^Refrain" [GB]3- [GB][FA][EG] | [FA]3- [FA]2 z | [Fd]3- [Fd][FB][Fd] | [Fc]6 | %12
w: ||||
w: to- * day; Loved|ones *|are * wait- ing,|Are|
w: ||||
w: ||||
 [Ge]3- [Ge][Gd][Gc] | [Ff]3 [Fc]2 [FB] | [FA][FA][FB] [FA]<[FA][EG] | F2 x4 |] %16
w: ||||
w: wait- * ing my|com- ing to-|day. * * * * *||
w: ||||
w: ||||
V:2
 C x5 | F x5 | x2 F x3 | x3 C3 | C x5 | F x5 | x6 | x6 || x6 | x6 | x6 | x6 | x6 | x6 | x6 | %15
w: loved|ver|Safe|man-|Now|for||||||||||
w: Je-|ver|Learn-|sing-|Yet|for||||||||||
w: spark-|ver|Oft|si-|Still|for||||||||||
w: sev-|ver|Soon|meet|Loved|for||||||||||
 F2 x4 |] %16
w: |
w: |
w: |
w: |
V:3
 [F,A,][F,A,][F,B,] [F,C][F,C][F,B,] | [F,A,][F,C][F,B,] [F,A,]3 | %2
w: ~ ~ ~ ~ ~ ~|~ ~ ~ ~|
 [C,C][C,B,][C,A,] [C,B,][C,C][C,B,] | [F,A,]3 [F,A,]3 | [F,A,][F,A,][F,B,] [F,C][F,C][F,B,] | %5
w: ~ ~ ~ ~ ~ ~|~ ~|~ ~ ~ ~ ~ ~|
 [F,A,][F,C][F,B,] [F,A,]3 | [G,C][G,D][G,C] [G,=B,][G,B,][G,B,] | [C,C]6 || %8
w: ~ ~ ~ ~|~ ~ ~ ~ ~ ~|~|
 [C,C][E,C][G,C] C[C,C][C,C] | [F,C]2 [F,C] [F,C]2 z | [B,,B,][D,B,][F,B,] B,[B,,D][B,,B,] | %11
w: Loved ones are watch- ing to-|to- day. Loved|ones are watch- ing to- day,|
 [F,A,]2 [F,A,] [F,A,]3 | [C,C][E,C][G,C] C[=B,F][_B,E] | [A,_E]3 [A,,E]2 [B,,D] | %14
w: day; Loved ones|are wait- ing, are wait- ing.||
 [C,C][C,C][C,D] [C,C]<[C,C][C,B,] | [F,A,]6 |] %16
w: ||
V:4
 x6 | x6 | x6 | x6 | x6 | x6 | x6 | x6 || x3 C x2 | x6 | x3 B, x2 | x6 | x3 C x2 | x6 | x6 | x6 |] %16
w: ||||||||day,||to-||||||

